X: 1
T: Rod's Birthday
C: Barbara McOwen (Nov 10, 1991)
S: handwritten MS by Barbara McOwen (3/93)
R: jig
Z: 2006 John Chambers <jc:trillian.mit.edu>
M: 6/8
L: 1/8
K: A
E \
| "A"A2c cBc | A2c cBc | "Bm"B2d dcd | B3- B2a \
| "E7"gee aee | bee aee | gaf efd | "(B7)"cdB "E7"ABG |
| "A"A2c cBc | A2c cBc | "Bm"B2d dcd | B3- B2A \
| "E7"GAB Bcd | def fga | gfe dcB | "A"A3- A2 |]
g \
| "A"a2e edc | a2e edc | "Bm"b2d dcB | B3- B2A \
| "E7"GEE AEE | BEE cEE | "B7"^dcB Bcd | "E"e2 "E7"efg |
| "A"a2e edc | a2e edc | "Bm"b2d dcB | B3- B2A \
| "E7"GAB Bcd | def fga | gfe dcB | "A"A3- A2 |]
